X:582
T:Roaring Jelly
T:Smash the Windows
B:Kerr's Merry Melodies Bk.1
Z:Nigel Gatherer
L:1/8
M:6/8
K:D
A, | DED F2A | d2f ecA | G2B F2A | E2F GFE |
     DED F2A | d2f ecA | Bgf edc | d3  d2 :|
a  | a2f f2d | A2a agf | g2e e2c | A2g gfe |
     f2d g2e | a2f bag | fed edc | d3  d2a |
     agf fed | Adf afd | gfe ecA | Ace gfe |
     fed gfe | agf bag | fed edc | d3  d2 |]
<end>
<start>
